svgs/sfacg.svg

<svg width="192" height="192" viewBox="0 0 192 192" fill="none" xmlns="http://www.w3.org/2000/svg">
<path d="M84.252 76.2632C84.252 76.2632 79.0611 71 71.2748 71C63.4886 71 57 74.9474 57 84.1579C57 93.3684 70.626 96 70.626 96C70.626 96 84.252 98.6316 84.252 107.842C84.252 117.053 77.7634 121 69.9771 121C62.1908 121 57 115.737 57 115.737M108.884 96V71H135M108.884 96V121M108.884 96H131.594M170 96C170 136.869 136.869 170 96 170C55.1309 170 22 136.869 22 96C22 55.1309 55.1309 22 96 22C136.869 22 170 55.1309 170 96Z" stroke="#000" stroke-width="12" stroke-linecap="round" stroke-linejoin="round"/>
</svg>

<svg xmlns="http://www.w3.org/2000/svg" width="192" height="192" fill="none"><path stroke="#000" stroke-linecap="round" stroke-linejoin="round" stroke-width="12" d="M84.252 76.263S79.062 71 71.275 71C63.489 71 57 74.947 57 84.158S70.626 96 70.626 96s13.626 2.632 13.626 11.842S77.763 121 69.977 121 57 115.737 57 115.737M108.884 96V71H135m-26.116 25v25m0-25h22.71M170 96c0 40.869-33.131 74-74 74s-74-33.131-74-74 33.13-74 74-74 74 33.13 74 74"/></svg>
